X: 21324
T: Kenny's Gap
R: hornpipe
M: 4/4
K: Dmajor
|:d/c/B|A z d/c/B AGFG|A/B/A ^G/A/B A2 d/c/B|AdcB AGFD|E/F/E _E/=E/F =E2 d/c/B|
A z cB AGFG|A/B/A ^GB A2 AB|=cABG AGFE|1 D/E/D CE D2:|2 D/E/D CE D2 fg||
|:addc d2 fg|addc d2 ef|gccB c2 ef|
[1 g/f/e fd e2 e/f/g|addc d/e/d e/f/g|addc d/e/d AB|=c/d/c AB cBAG|FDDC D2 e/f/g:|
[2 g/f/e fd e3 g|fdec dBAG|FAEA D z AB|=cABG AGFE|D/E/D CE D2||

